data/styles/clear/style-clear/symbols/airport-m.svg

<svg height="24" viewBox="0 0 24 24" width="24"><g fill="none" fill-rule="evenodd"><rect fill="#fff" height="24" opacity=".6" rx="2.5" width="24"/><rect fill="#2f6499" height="22" rx="2" width="22" x="1" y="1"/><path d="m18.8867377 13.9291339v.9911417l-5.4520814-.9911417v2.9734252l1.9825751 1.2113734v.77091h-5.94772511v-.77091l1.98257501-1.2113734v-2.9734252l-5.4520813.9911417v-.9911417l5.4520813-2.9734252v-2.97342524c0-.77081092.2202839-1.98228346.9912875-1.98228346.7709937 0 .9912875 1.21147254.9912875 1.98228346v2.97342524z" fill="#fff"/></g></svg>

<svg width="24" height="24" viewBox="0 0 24 24">
  <g fill="none" fill-rule="evenodd">
    <rect width="24" height="24" fill="#FFF" opacity=".6" rx="2.5"/>
    <rect width="22" height="22" x="1" y="1" fill="#2F6499" rx="2"/>
    <path fill="#FFF" d="M18.8867377,13.9291339 L18.8867377,14.9202756 L13.4346563,13.9291339 L13.4346563,16.9025591 L15.4172314,18.1139325 L15.4172314,18.8848425 L9.46950629,18.8848425 L9.46950629,18.1139325 L11.4520813,16.9025591 L11.4520813,13.9291339 L6,14.9202756 L6,13.9291339 L11.4520813,10.9557087 L11.4520813,7.98228346 C11.4520813,7.21147254 11.6723652,6 12.4433688,6 C13.2143625,6 13.4346563,7.21147254 13.4346563,7.98228346 L13.4346563,10.9557087 L18.8867377,13.9291339 Z"/>
  </g>
</svg>
